X: 1
T: Gravel Walk
C: trad.
O: Ireland
R: reel
Z: 2020 John Chambers <jc:trillian.mit.edu>
S: https://www.facebook.com/groups/Fiddletuneoftheday/ 2020-09-22
S: https://www.facebook.com/groups/Fiddletuneoftheday/photos/
M: C|
L: 1/8
K: Am	% and C
|:\
"Am"A2eA cAeA | A2eA "G"BAGB |\
"Am"A2eA cdef | "C"gedc "G"BAGB :|
|:\
"Am"A2aA gAfA | A2eA "G"BAGB |\
[1 "Am"A2aA gAfa | "C"gedc "G"BAGB :|\
[2 "Am"ABcd egfa | "C"gedc "G"BAGB |]
|:\
"Am"cAAG A2AB | "F"cAAc "G"BGBd |\
"Am"cAAG A2ef | "G"gfge dBGB :|
K: C
|:\
"C"c2gc acgc | c2gc "G"BAGB |\
"C"c2gc acga | gedc "G"BAGB ||\
"C"c2gc acgc |
c2gc "G"BAGB |\
[1 "Am"ABcd egfa | "G"gedc BAGB :|\
[2 "Am"Aaag agea | "G"gedc BAGB |]
